X: 1
T: Castledykes Reel
T: ABABA
C: Ian Holmes
R: reel
Z: 2007 John Chambers <jc:trillian.mit.edu>
B: RSCDS 44-7
B: Originally Ours p.134 #4407
M: 2/4
L: 1/16
K: G
   d2 \
| "G"g2d2 d^cd2 | "C"e2c2 "(Am)"cBc2 | "G"dcB2 "E/G#"BedB | "Am"c2A2 "D7"A2d2 \
| "G"g2d2 d^cd2 | "C"e2c2 "(Am)"cBc2 | "G"d2cB   "D7"AcBA | "G"G2B2 "fine"G2 |]
[| GA \
| "Em"B2B2 "E7/G#"BedB | "Am"c2A2 A3G | "D7"FGAB cAfe | "G"dcB2 B2GA \
| "Em"B2B2 "E7/G#"BedB | "Am"c2A2 A3G | "D7"FGAB cedc | "G"B2G2 "d.C."G2 |]
